epam-assets/icon-sources/18/social-network-telegram.svg

<svg width="18" height="18" viewBox="0 0 18 18" fill="none" xmlns="http://www.w3.org/2000/svg">
<path fill-rule="evenodd" clip-rule="evenodd" d="M7.3287 14.3194L7.53843 11.1729L13.2909 6.02547C13.5456 5.79488 13.2385 5.6833 12.9014 5.88414L5.8007 10.3398L2.72973 9.37279C2.07059 9.18683 2.0631 8.73308 2.87953 8.40579L14.8414 3.82368C15.3881 3.57821 15.9125 3.95757 15.7027 4.79068L13.6654 14.3194C13.5231 14.9963 13.1111 15.1599 12.5419 14.8475L9.44093 12.5713L7.95039 14.007C7.77811 14.1781 7.6358 14.3194 7.3287 14.3194Z" fill="#6C6F80"/>
</svg>

<svg xmlns="http://www.w3.org/2000/svg" width="18" height="18" fill="none" viewBox="0 0 18 18">
  <path fill="#6C6F80" fill-rule="evenodd" d="m7.329 14.32.21-3.147 5.752-5.148c.255-.23-.053-.342-.39-.14l-7.1 4.455-3.071-.967c-.66-.186-.667-.64.15-.967l11.96-4.582c.547-.246 1.072.134.862.967l-2.038 9.528c-.142.677-.554.84-1.123.528L9.44 12.572l-1.49 1.436c-.173.171-.315.312-.622.312Z" clip-rule="evenodd"/>
</svg>
